; generated by Slic3r 0.9.7 on 2012-12-13 at 09:11:56

; layer_height = 0.4
; perimeters = 3
; top_solid_layers = 3
; bottom_solid_layers = 3
; fill_density = 0.4
; perimeter_speed = 30
; infill_speed = 60
; travel_speed = 130
; scale = 1
; nozzle_diameter = 0.5
; filament_diameter = 3
; extrusion_multiplier = 1
; perimeters extrusion width = 0.53mm
; infill extrusion width = 0.53mm
; support material extrusion width = 0.53mm
; first layer extrusion width = 0.80mm

M104 S200 ; set temperature
G28 ; home all axes
M109 S200 ; wait for temperature to be reached
G90 ; use absolute coordinates
G21 ; set units to millimeters
G92 E0
M82 ; use absolute distances for extrusion
G1 F1800.000 E-1.00000
G92 E0
G1 Z0.400 F7800.000
G1 X71.272 Y61.850
G1 F1800.000 E1.00000
G1 X71.632 Y61.450 F540.000 E1.02240
G1 X71.822 Y61.270 E1.03330
G1 X72.442 Y60.750 E1.06698
G1 X72.882 Y60.450 E1.08915
G1 X73.592 Y60.070 E1.12267
G1 X74.332 Y59.780 E1.15576
G1 X74.842 Y59.630 E1.17789
G1 X75.632 Y59.490 E1.21129
G1 X76.162 Y59.450 E1.23341
G1 X104.432 Y59.440 E2.41022
G1 X105.252 Y59.490 E2.44442
G1 X106.062 Y59.640 E2.47871
G1 X106.852 Y59.890 E2.51320
G1 X107.602 Y60.230 E2.54748
G1 X108.072 Y60.510 E2.57026
G1 X108.302 Y60.670 E2.58192
G1 X108.942 Y61.180 E2.61599
G1 X109.522 Y61.770 E2.65043
G1 X110.022 Y62.420 E2.68456
G1 X110.442 Y63.130 E2.71890
G1 X110.662 Y63.630 E2.74164
G1 X124.652 Y97.820 E4.27943
G1 X124.892 Y98.640 E4.31499
G1 X128.942 Y121.520 E5.28224
G1 X129.032 Y122.220 E5.31162
G1 X129.052 Y122.690 E5.33120
G1 X129.052 Y136.660 E5.91274
G1 X129.002 Y137.470 E5.94652
G1 X128.852 Y138.270 E5.98040
G1 X128.702 Y138.790 E6.00293
G1 X128.512 Y139.300 E6.02559
G1 X128.402 Y139.550 E6.03696
G1 X128.142 Y140.030 E6.05968
G1 X127.852 Y140.490 E6.08232
G1 X127.532 Y140.920 E6.10463
G1 X127.172 Y141.330 E6.12734
G1 X126.572 Y141.880 E6.16122
G1 X126.142 Y142.200 E6.18354
G1 X125.682 Y142.490 E6.20617
G1 X125.202 Y142.750 E6.22890
G1 X124.442 Y143.050 E6.26291
G1 X123.662 Y143.260 E6.29654
G1 X123.122 Y143.350 E6.31932
G1 X122.312 Y143.400 E6.35311
G1 X118.312 Y143.400 E6.51962
G1 X117.712 Y143.370 E6.54462
G1 X117.122 Y143.290 E6.56941
G1 X116.542 Y143.160 E6.59415
G1 X115.972 Y142.980 E6.61904
G1 X115.432 Y142.750 E6.64347
G1 X115.162 Y142.610 E6.65613
G1 X99.162 Y134.140 E7.40974
G1 X98.462 Y133.720 E7.44372
G1 X98.022 Y133.390 E7.46661
G1 X74.022 Y113.600 E8.76152
G1 X73.612 Y113.230 E8.78451
G1 X73.232 Y112.830 E8.80748
G1 X72.892 Y112.400 E8.83030
G1 X72.582 Y111.940 E8.85339
G1 X72.192 Y111.210 E8.88784
G1 X71.892 Y110.440 E8.92224
G1 X71.742 Y109.900 E8.94557
G1 X67.692 Y88.120 E9.86776
G1 X67.592 Y87.380 E9.89885
G1 X67.572 Y86.890 E9.91926
G1 X67.572 Y86.420 E9.93883
G1 X67.612 Y85.720 E9.96801
G1 X69.762 Y65.210 E10.82647
G1 X69.862 Y64.690 E10.84851
G1 X70.002 Y64.170 E10.87093
G1 X70.282 Y63.420 E10.90426
G1 X70.652 Y62.720 E10.93722
G1 X70.952 Y62.270 E10.95973
G1 X71.203 Y61.937 E10.97712
G1 X71.272 Y61.850 E10.98171
G1 F1800.000 E9.98171
G92 E0
G1 X73.094 Y64.568 F7800.000
G1 F1800.000 E1.00000
G1 X74.818 Y62.845 F540.000 E1.10147
G1 X82.056 Y62.845 E1.40276
G1 X82.437 Y63.226 E1.42520
G1 X82.818 Y62.845 E1.44764
G1 X90.056 Y62.845 E1.74892
G1 X90.437 Y63.226 E1.77136
G1 X90.818 Y62.845 E1.79381
G1 X98.056 Y62.845 E2.09509
G1 X98.437 Y63.226 E2.11753
G1 X98.818 Y62.845 E2.13997
G1 X106.056 Y62.845 E2.44126
G1 X107.779 Y64.568 E2.54273
G1 X107.779 Y77.403 E3.07702
G1 X109.129 Y78.576 E3.15146
G1 X109.659 Y79.739 E3.20465
G1 X109.659 Y83.927 E3.37897
G1 X111.263 Y83.930 E3.44576
G1 X112.983 Y85.657 E3.54723
G1 X112.977 Y88.895 E3.68200
G1 X111.250 Y90.615 E3.78348
G1 X109.659 Y90.612 E3.84972
G1 X109.659 Y93.157 E3.95566
G1 X111.935 Y93.157 E4.05042
G1 X112.316 Y93.538 E4.07286
G1 X112.697 Y93.157 E4.09530
G1 X115.935 Y93.157 E4.23008
G1 X117.659 Y94.881 E4.33155
G1 X117.659 Y96.756 E4.40961
G1 X119.957 Y96.781 E4.50530
G1 X121.659 Y98.500 E4.60600
G1 X121.659 Y115.756 E5.32431
G1 X123.935 Y115.756 E5.41907
G1 X125.659 Y117.480 E5.52054
G1 X125.659 Y138.280 E6.38643
G1 X123.935 Y140.004 E6.48790
G1 X116.697 Y140.004 E6.78918
G1 X114.974 Y138.280 E6.89066
G1 X114.974 Y135.147 E7.02107
G1 X112.697 Y135.147 E7.11583
G1 X112.316 Y134.766 E7.13827
G1 X111.935 Y135.147 E7.16071
G1 X108.697 Y135.147 E7.29549
G1 X108.316 Y134.766 E7.31793
G1 X107.935 Y135.147 E7.34037
G1 X104.697 Y135.147 E7.47514
G1 X102.974 Y133.424 E7.57661
G1 X102.974 Y131.540 E7.65503
G1 X100.682 Y131.523 E7.75044
G1 X98.974 Y129.802 E7.85137
G1 X98.974 Y115.348 E8.45303
G1 X96.697 Y115.348 E8.54779
G1 X96.316 Y114.967 E8.57023
G1 X95.935 Y115.348 E8.59267
G1 X92.697 Y115.348 E8.72745
G1 X92.316 Y114.967 E8.74989
G1 X91.935 Y115.348 E8.77233
G1 X88.697 Y115.348 E8.90710
G1 X88.316 Y114.967 E8.92954
G1 X87.935 Y115.348 E8.95198
G1 X84.697 Y115.348 E9.08676
G1 X84.316 Y114.967 E9.10920
G1 X83.935 Y115.348 E9.13164
G1 X80.697 Y115.348 E9.26641
G1 X80.316 Y114.967 E9.28885
G1 X79.935 Y115.348 E9.31130
G1 X76.697 Y115.348 E9.44607
G1 X74.974 Y113.625 E9.54754
G1 X74.974 Y93.837 E10.37124
G1 X72.697 Y93.837 E10.46600
G1 X70.974 Y92.114 E10.56748
G1 X70.974 Y90.168 E10.64848
G1 X69.850 Y89.095 E10.71313
G1 X69.774 Y85.859 E10.84790
G1 X70.037 Y85.583 E10.86375
G1 X69.882 Y84.901 E10.89286
G1 X70.974 Y83.168 E10.97813
G1 X70.974 Y81.207 E11.05974
G1 X72.697 Y79.484 E11.16121
G1 X73.094 Y79.484 E11.17774
G1 X73.094 Y64.679 E11.79404
G1 X73.094 Y64.568 E11.79864
G1 F1800.000 E10.79864
G92 E0
G1 X85.659 Y96.138 F7800.000
G1 F1800.000 E1.00000
G1 X87.935 Y96.138 F540.000 E1.09476
G1 X88.498 Y95.575 E1.12790
G1 X88.697 Y95.775 E1.13964
G1 X91.935 Y95.775 E1.27442
G1 X92.316 Y95.394 E1.29686
G1 X92.697 Y95.775 E1.31930
G1 X95.432 Y95.775 E1.43313
G1 X96.697 Y97.040 E1.50763
G1 X98.974 Y97.040 E1.60239
G1 X98.974 Y98.479 E1.66229
G1 X96.697 Y98.479 E1.75705
G1 X95.545 Y99.632 E1.82489
G1 X92.697 Y99.632 E1.94343
G1 X91.970 Y100.359 E1.98627
G1 X91.935 Y100.325 E1.98831
G1 X89.139 Y100.325 E2.10471
G1 X87.935 Y99.121 E2.17558
G1 X85.659 Y99.121 E2.27034
G1 X85.659 Y98.958 E2.27713
G1 X84.273 Y97.572 E2.35871
G1 X85.615 Y96.230 E2.43770
G1 X85.659 Y96.138 E2.44195
G1 F1800.000 E1.44195
G92 E0
G1 X88.714 Y79.092 F7800.000
G1 F1800.000 E1.00000
G1 X87.935 Y78.313 F540.000 E1.04587
G1 X85.659 Y78.313 E1.14063
G1 X85.659 Y78.173 E1.14648
G1 X83.935 Y76.449 E1.24795
G1 X83.779 Y76.449 E1.25443
G1 X83.779 Y76.133 E1.26760
G1 X86.056 Y76.133 E1.36236
G1 X87.240 Y74.948 E1.43211
G1 X90.056 Y74.948 E1.54930
G1 X90.692 Y74.312 E1.58675
G1 X90.818 Y74.438 E1.59418
G1 X93.633 Y74.438 E1.71136
G1 X94.818 Y75.622 E1.78112
G1 X96.802 Y75.622 E1.86370
G1 X96.883 Y76.789 E1.91237
G1 X97.804 Y77.589 E1.96313
G1 X96.697 Y77.589 E2.00918
G1 X95.619 Y78.667 E2.07265
G1 X92.697 Y78.667 E2.19428
G1 X92.104 Y79.261 E2.22923
G1 X91.935 Y79.092 E2.23916
G1 X88.825 Y79.092 E2.36864
G1 X88.714 Y79.092 E2.37323
G1 F1800.000 E1.37323
G92 E0
G1 X90.437 Y64.266 F7800.000
G1 F1800.000 E1.00000
G1 X91.123 Y63.580 F540.000 E1.04038
G1 X97.751 Y63.580 E1.31630
G1 X98.437 Y64.266 E1.35667
G1 X99.123 Y63.580 E1.39705
G1 X105.751 Y63.580 E1.67297
G1 X107.044 Y64.873 E1.74907
G1 X107.044 Y77.739 E2.28464
G1 X108.526 Y79.027 E2.36638
G1 X108.923 Y79.899 E2.40627
G1 X108.923 Y84.661 E2.60451
G1 X110.957 Y84.665 E2.68917
G1 X112.247 Y85.960 E2.76528
G1 X112.242 Y88.589 E2.87468
G1 X110.947 Y89.879 E2.95079
G1 X108.923 Y89.875 E3.03503
G1 X108.923 Y93.972 E3.20557
G1 X109.002 Y93.893 E3.21022
G1 X111.630 Y93.893 E3.31963
G1 X112.316 Y94.579 E3.36001
G1 X113.002 Y93.893 E3.40038
G1 X115.630 Y93.893 E3.50979
G1 X116.923 Y95.185 E3.58589
G1 X116.923 Y97.484 E3.68156
G1 X119.647 Y97.513 E3.79496
G1 X120.923 Y98.803 E3.87049
G1 X120.923 Y116.571 E4.61012
G1 X121.002 Y116.492 E4.61478
G1 X123.630 Y116.492 E4.72418
G1 X124.923 Y117.784 E4.80029
G1 X124.923 Y137.976 E5.64080
G1 X123.630 Y139.268 E5.71691
G1 X117.002 Y139.268 E5.99282
G1 X115.709 Y137.976 E6.06893
G1 X115.709 Y134.333 E6.22057
G1 X115.630 Y134.412 E6.22522
G1 X113.002 Y134.412 E6.33463
G1 X112.316 Y133.726 E6.37501
G1 X111.630 Y134.412 E6.41539
G1 X109.002 Y134.412 E6.52479
G1 X108.316 Y133.726 E6.56517
G1 X107.630 Y134.412 E6.60555
G1 X105.002 Y134.412 E6.71496
G1 X103.709 Y133.119 E6.79106
G1 X103.709 Y130.810 E6.88718
G1 X100.990 Y130.789 E7.00037
G1 X99.709 Y129.499 E7.07607
G1 X99.709 Y114.534 E7.69902
G1 X99.630 Y114.613 E7.70368
G1 X97.002 Y114.613 E7.81308
G1 X96.316 Y113.927 E7.85346
G1 X95.630 Y114.613 E7.89384
G1 X93.002 Y114.613 E8.00325
G1 X92.316 Y113.927 E8.04362
G1 X91.630 Y114.613 E8.08400
G1 X89.002 Y114.613 E8.19341
G1 X88.316 Y113.927 E8.23379
G1 X87.630 Y114.613 E8.27417
G1 X85.002 Y114.613 E8.38357
G1 X84.316 Y113.927 E8.42395
G1 X83.630 Y114.613 E8.46433
G1 X81.002 Y114.613 E8.57374
G1 X80.316 Y113.927 E8.61412
G1 X79.630 Y114.613 E8.65450
G1 X77.002 Y114.613 E8.76390
G1 X75.709 Y113.320 E8.84001
G1 X75.709 Y93.023 E9.68494
G1 X75.630 Y93.102 E9.68959
G1 X73.002 Y93.102 E9.79900
G1 X71.709 Y91.809 E9.87510
G1 X71.709 Y89.853 E9.95653
G1 X70.578 Y88.774 E10.02160
G1 X70.517 Y86.146 E10.13100
G1 X70.842 Y85.806 E10.15060
G1 X70.667 Y85.036 E10.18347
G1 X71.709 Y83.380 E10.26489
G1 X71.709 Y81.512 E10.34266
G1 X73.002 Y80.219 E10.41877
G1 X73.830 Y80.219 E10.45323
G1 X73.830 Y64.873 E11.09207
G1 X75.123 Y63.580 E11.16817
G1 X81.751 Y63.580 E11.44409
G1 X82.437 Y64.266 E11.48447
G1 X83.123 Y63.580 E11.52485
G1 X89.751 Y63.580 E11.80076
G1 X90.359 Y64.188 E11.83655
G1 X90.437 Y64.266 E11.84114
G1 F1800.000 E10.84114
G92 E0
G1 X92.316 Y94.353 F7800.000
G1 F1800.000 E1.00000
G1 X93.002 Y95.039 F540.000 E1.04038
G1 X95.630 Y95.039 E1.14978
G1 X95.709 Y94.960 E1.15444
G1 X95.709 Y95.012 E1.15659
G1 X97.002 Y96.305 E1.23270
G1 X99.630 Y96.305 E1.34210
G1 X99.709 Y96.226 E1.34676
G1 X99.709 Y99.294 E1.47449
G1 X99.630 Y99.215 E1.47914
G1 X97.002 Y99.215 E1.58855
G1 X95.740 Y100.477 E1.66284
G1 X95.630 Y100.367 E1.66930
G1 X93.002 Y100.367 E1.77871
G1 X91.970 Y101.400 E1.83949
G1 X91.630 Y101.060 E1.85947
G1 X89.002 Y101.060 E1.96887
G1 X88.918 Y101.144 E1.97382
G1 X87.630 Y99.857 E2.04963
G1 X85.002 Y99.857 E2.15904
G1 X84.923 Y99.936 E2.16369
G1 X84.923 Y99.263 E2.19171
G1 X83.630 Y97.970 E2.26782
G1 X81.002 Y97.970 E2.37722
G1 X80.923 Y98.049 E2.38188
G1 X80.923 Y97.095 E2.42157
G1 X81.002 Y97.174 E2.42622
G1 X83.630 Y97.174 E2.53563
G1 X84.923 Y95.882 E2.61173
G1 X84.923 Y95.324 E2.63496
G1 X85.002 Y95.403 E2.63962
G1 X87.630 Y95.403 E2.74902
G1 X88.498 Y94.535 E2.80010
G1 X89.002 Y95.039 E2.82978
G1 X91.630 Y95.039 E2.93919
G1 X92.238 Y94.431 E2.97497
G1 X92.316 Y94.353 E2.97957
G1 F1800.000 E1.97957
G92 E0
G1 X92.104 Y80.301 F7800.000
G1 F1800.000 E1.00000
G1 X91.630 Y79.828 F540.000 E1.02787
G1 X89.002 Y79.828 E1.13727
G1 X88.706 Y80.124 E1.15471
G1 X87.630 Y79.049 E1.21803
G1 X85.002 Y79.049 E1.32744
G1 X84.923 Y79.128 E1.33209
G1 X84.923 Y78.477 E1.35917
G1 X83.630 Y77.185 E1.43527
G1 X82.618 Y77.185 E1.47739
G1 X83.044 Y76.759 E1.50243
G1 X83.044 Y75.318 E1.56242
G1 X83.123 Y75.397 E1.56708
G1 X85.751 Y75.397 E1.67648
G1 X87.029 Y74.119 E1.75174
G1 X87.123 Y74.212 E1.75724
G1 X89.751 Y74.212 E1.86665
G1 X90.692 Y73.271 E1.92204
G1 X91.123 Y73.702 E1.94740
G1 X93.751 Y73.702 E2.05681
G1 X93.844 Y73.609 E2.06231
G1 X95.123 Y74.887 E2.13757
G1 X97.488 Y74.887 E2.23602
G1 X97.596 Y76.434 E2.30056
G1 X99.709 Y78.271 E2.41714
G1 X99.709 Y78.404 E2.42266
G1 X99.630 Y78.325 E2.42731
G1 X97.002 Y78.325 E2.53672
G1 X95.777 Y79.550 E2.60883
G1 X95.630 Y79.403 E2.61748
G1 X93.002 Y79.403 E2.72688
G1 X92.182 Y80.223 E2.77518
G1 X92.104 Y80.301 E2.77977
G1 F1800.000 E1.77977
G92 E0
G1 X112.445 Y95.490 F7800.000
G1 F1800.000 E1.00000
G1 X113.307 Y94.628 F540.000 E1.05074
G1 X115.326 Y94.628 E1.13477
G1 X116.187 Y95.490 E1.18551
G1 X116.187 Y98.211 E1.29879
G1 X119.337 Y98.245 E1.42990
G1 X120.187 Y99.105 E1.48025
G1 X120.187 Y134.790 E2.96574
G1 X120.445 Y134.790 E2.97646
G1 X120.445 Y118.089 E3.67169
G1 X121.307 Y117.227 E3.72242
G1 X123.326 Y117.227 E3.80646
G1 X124.187 Y118.089 E3.85720
G1 X124.187 Y137.671 E4.67235
G1 X123.326 Y138.533 E4.72308
G1 X117.307 Y138.533 E4.97363
G1 X116.445 Y137.671 E5.02437
G1 X116.445 Y101.957 E6.51105
G1 X116.187 Y101.954 E6.52178
G1 X116.187 Y106.971 E6.73063
G1 X116.070 Y107.089 E6.73756
G1 X116.187 Y107.207 E6.74449
G1 X116.187 Y120.463 E7.29632
G1 X115.614 Y121.036 E7.33007
G1 X116.187 Y121.610 E7.36381
G1 X116.187 Y132.814 E7.83024
G1 X115.326 Y133.676 E7.88098
G1 X113.307 Y133.676 E7.96501
G1 X112.445 Y132.814 E8.01575
G1 X112.445 Y121.610 E8.48217
G1 X113.018 Y121.036 E8.51592
G1 X112.445 Y120.463 E8.54967
G1 X112.445 Y107.207 E9.10150
G1 X112.563 Y107.089 E9.10843
G1 X112.445 Y106.971 E9.11536
G1 X112.445 Y101.233 E9.35424
G1 X112.266 Y101.050 E9.36488
G1 X112.288 Y99.031 E9.44892
G1 X112.445 Y98.878 E9.45807
G1 X112.445 Y95.600 E9.59449
G1 X112.445 Y95.490 E9.59908
G1 F1800.000 E8.59908
G92 E0
G1 X110.643 Y89.143 F7800.000
G1 F1800.000 E1.00000
G1 X108.187 Y89.138 F540.000 E1.10223
G1 X108.187 Y120.863 E2.42288
G1 X107.751 Y121.299 E2.44856
G1 X108.187 Y121.735 E2.47423
G1 X108.187 Y126.366 E2.66698
G1 X108.445 Y126.368 E2.67770
G1 X108.445 Y122.910 E2.82162
G1 X109.307 Y122.048 E2.87235
G1 X111.326 Y122.048 E2.95639
G1 X112.187 Y122.910 E3.00713
G1 X112.187 Y132.814 E3.41941
G1 X111.326 Y133.676 E3.47015
G1 X109.307 Y133.676 E3.55418
G1 X108.445 Y132.814 E3.60492
G1 X108.445 Y130.110 E3.71749
G1 X108.187 Y130.108 E3.72821
G1 X108.187 Y132.814 E3.84085
G1 X107.326 Y133.676 E3.89159
G1 X105.307 Y133.676 E3.97563
G1 X104.445 Y132.814 E4.02636
G1 X104.445 Y130.080 E4.14019
G1 X101.299 Y130.056 E4.27116
G1 X100.445 Y129.196 E4.32162
G1 X100.445 Y89.123 E5.98976
G1 X100.187 Y89.122 E6.00048
G1 X100.187 Y94.707 E6.23297
G1 X99.326 Y95.569 E6.28371
G1 X97.307 Y95.569 E6.36775
G1 X96.445 Y94.707 E6.41848
G1 X96.445 Y89.115 E6.65128
G1 X96.187 Y89.114 E6.66200
G1 X96.187 Y93.442 E6.84214
G1 X95.326 Y94.304 E6.89288
G1 X93.307 Y94.304 E6.97692
G1 X92.445 Y93.442 E7.02765
G1 X92.445 Y89.107 E7.20809
G1 X92.187 Y89.107 E7.21881
G1 X92.187 Y93.442 E7.39928
G1 X91.326 Y94.304 E7.45001
G1 X89.307 Y94.304 E7.53405
G1 X88.445 Y93.442 E7.58479
G1 X88.445 Y89.131 E7.76424
G1 X88.187 Y89.133 E7.77496
G1 X88.187 Y93.805 E7.96944
G1 X87.326 Y94.667 E8.02017
G1 X85.307 Y94.667 E8.10421
G1 X84.445 Y93.805 E8.15495
G1 X84.445 Y89.206 E8.34640
G1 X84.187 Y89.205 E8.35712
G1 X84.187 Y95.577 E8.62236
G1 X83.326 Y96.439 E8.67309
G1 X81.307 Y96.439 E8.75713
G1 X80.445 Y95.577 E8.80787
G1 X80.445 Y91.175 E8.99111
G1 X80.187 Y91.234 E9.00210
G1 X80.187 Y113.015 E9.90882
G1 X79.326 Y113.877 E9.95955
G1 X77.307 Y113.877 E10.04359
G1 X76.445 Y113.015 E10.09433
G1 X76.445 Y89.332 E11.08020
G1 X76.233 Y89.199 E11.09062
G1 X76.187 Y89.200 E11.09252
G1 X76.187 Y91.504 E11.18845
G1 X75.326 Y92.366 E11.23919
G1 X73.307 Y92.366 E11.32323
G1 X72.445 Y91.504 E11.37396
G1 X72.445 Y89.287 E11.46625
G1 X72.189 Y89.293 E11.47692
G1 X71.307 Y88.452 E11.52766
G1 X71.260 Y86.434 E11.61170
G1 X71.647 Y86.028 E11.63505
G1 X71.452 Y85.170 E11.67168
G1 X72.445 Y83.593 E11.74926
G1 X72.445 Y81.817 E11.82318
G1 X73.307 Y80.955 E11.87391
G1 X75.183 Y80.955 E11.95200
G1 X74.566 Y80.338 E11.98834
G1 X74.566 Y65.178 E12.61942
G1 X75.427 Y64.316 E12.67016
G1 X81.446 Y64.316 E12.92071
G1 X82.308 Y65.178 E12.97144
G1 X82.308 Y76.455 E13.44088
G1 X81.446 Y77.316 E13.49161
G1 X80.187 Y77.316 E13.54401
G1 X80.187 Y85.363 E13.87896
G1 X80.445 Y85.357 E13.88968
G1 X80.445 Y78.782 E14.16337
G1 X81.307 Y77.920 E14.21411
G1 X83.326 Y77.920 E14.29814
G1 X84.187 Y78.782 E14.34888
G1 X84.187 Y85.430 E14.62562
G1 X84.445 Y85.428 E14.63635
G1 X84.445 Y80.646 E14.83539
G1 X85.307 Y79.784 E14.88612
G1 X87.326 Y79.784 E14.97016
G1 X88.187 Y80.646 E15.02090
G1 X88.187 Y85.356 E15.21697
G1 X88.445 Y85.357 E15.22769
G1 X88.445 Y81.425 E15.39134
G1 X89.307 Y80.563 E15.44208
G1 X91.326 Y80.563 E15.52612
G1 X92.187 Y81.425 E15.57685
G1 X92.187 Y85.351 E15.74029
G1 X92.445 Y85.349 E15.75101
G1 X92.445 Y81.000 E15.93204
G1 X93.307 Y80.138 E15.98277
